X: 21
T:Banks & Braes of Bonny Doon,The. WCa.21
M:6/8
Q:60
S:Wm. Calvert MS, 1812, Leyburn, Yorks.
R:Air
O:England
A:North Yorkshire
Z:vmp.Chris Partington, May 2003
K:D
A|d2d ede|fgf ede|fed dBA|ABde2"sic"A2|!
d2d ede|fgf ede|{de}fed dBA|ABcd2::!
f|a2b afd|a2b afd|afd afd|"hold"a2(gf)"hold"{f}e2A|!
d2d ede|{de}fgf ede|{de}fed dBA|ABcd2:||
